logo/rocky-linux-icon.svg

<?xml version="1.0" encoding="UTF-8"?>
<svg width="256px" height="256px" viewBox="0 0 256 256" version="1.1" xmlns="http://www.w3.org/2000/svg" xmlns:xlink="http://www.w3.org/1999/xlink" preserveAspectRatio="xMidYMid">
    <title>Rocky Linux</title>
    <g>
        <path d="M248.877333,170.210667 C253.492,156.994667 256,142.790667 256,128 C256,57.3066667 198.692,0 128,0 C57.3066667,0 0,57.3066667 0,128 C0,162.978667 14.0306667,194.681333 36.7706667,217.784 L166.610667,87.944 L198.666667,120 L248.877333,170.210667 Z M225.496,210.94 L166.610667,152.056 L74.3973333,244.269333 C90.7026667,251.798667 108.86,256 128,256 C167.050667,256 202.018667,238.512 225.496,210.94 L225.496,210.94 Z" fill="#10B981"></path>
    </g>
</svg>

<svg viewBox="0 0 256 256" xmlns="http://www.w3.org/2000/svg"><path fill="#10B981" d="M248.87 170.21c4.61-13.22 7.12-27.42 7.12-42.22 0-70.7-57.31-128-128-128 -70.7 0-128 57.3-128 128 0 34.97 14.03 66.68 36.77 89.78L166.6 87.93l32.05 32.05 50.21 50.21Zm-23.39 40.72l-58.89-58.89 -92.22 92.21c16.3 7.52 34.46 11.73 53.6 11.73 39.05 0 74.01-17.488 97.49-45.06v0Z"/></svg>
